resources/svg/minor-plan.svg

<svg xmlns="http://www.w3.org/2000/svg" viewBox="0 0 20 20" fill="currentColor"><path d="M11 3a2 2 0 0 0-2 2v2h-1a2 2 0 0 0-2 2v2h-1a2 2 0 0 0-2 2v2c0 1.1.9 2 2 2h10a2 2 0 0 0 2-2v-10a2 2 0 0 0-2-2h-4Zm0 2h4v2h-4v-2Zm-3 4h4v2h-4v-2Zm-3 4h4v2h-4v-2Z"/></svg>

<svg xmlns="http://www.w3.org/2000/svg" viewBox="0 0 20 20" fill="currentColor"><path d="M11 3a2 2 0 0 0-2 2v2H8a2 2 0 0 0-2 2v2H5a2 2 0 0 0-2 2v2c0 1.1.9 2 2 2h10a2 2 0 0 0 2-2V5a2 2 0 0 0-2-2h-4Zm0 2h4v2h-4V5ZM8 9h4v2H8V9Zm-3 4h4v2H5v-2Z" fill="#5C5F62"/></svg>
